packages/core/src/svgs/networks/branded/immutable.svg

<svg width="24" height="24" viewBox="0 0 24 24" fill="none" xmlns="http://www.w3.org/2000/svg">
<path d="M12 2C6.47344 2 2 6.47344 2 12C2 17.5265 6.47344 22 12 22C17.5265 22 22 17.5265 22 12C22 6.47344 17.5265 2 12 2ZM11.5712 6.04474C11.8509 5.90494 12.1398 5.91426 12.4101 6.07269C13.342 6.60391 14.274 7.14445 15.206 7.685C15.5043 7.86208 15.6532 8.14166 15.6532 8.48649C15.6626 9.698 15.6532 10.9003 15.6532 12.1119C15.6532 12.1584 15.6254 12.2236 15.5881 12.2422C15.2339 12.4566 14.8611 12.6618 14.4697 12.8946C14.4697 12.8201 14.4697 12.7642 14.4697 12.7082C14.4697 11.4687 14.4697 10.22 14.4697 8.98043C14.4697 8.73811 14.3859 8.589 14.1808 8.46785C13.0998 7.85275 12.0186 7.22834 10.9375 6.60391C10.891 6.57595 10.8444 6.548 10.7698 6.5014C11.0588 6.32432 11.301 6.17521 11.5712 6.04474ZM11.3663 18.4026C11.301 18.3746 11.2638 18.3468 11.2171 18.328C9.79125 17.5079 8.35601 16.6691 6.92078 15.8584C6.52004 15.6254 6.33365 15.2991 6.34296 14.8425C6.35229 13.8639 6.35229 12.8854 6.34296 11.9067C6.34296 11.4687 6.52004 11.1426 6.91146 10.9283C7.91799 10.3504 8.92451 9.77263 9.92175 9.19478C10.0056 9.14819 10.0709 9.13886 10.164 9.19478C10.5089 9.39981 10.863 9.60488 11.2265 9.80988C11.1519 9.8565 11.1054 9.88437 11.0494 9.91237C9.96838 10.5367 8.87791 11.1705 7.79684 11.7856C7.61976 11.8881 7.53589 12.0186 7.53589 12.2236C7.5452 12.9972 7.5452 13.7614 7.53589 14.535C7.53589 14.7492 7.61976 14.8798 7.79684 14.9823C8.94315 15.6346 10.0895 16.3056 11.2358 16.9581C11.329 17.014 11.3756 17.0699 11.3756 17.191C11.3662 17.5917 11.3663 17.9833 11.3663 18.4026ZM11.3663 16.2031C11.2638 16.1473 11.1985 16.11 11.124 16.0634C10.2106 15.5415 9.30662 15.0102 8.39329 14.4884C8.29077 14.4324 8.2535 14.3765 8.26281 14.2554C8.27214 13.6683 8.26281 13.0718 8.26281 12.4846C8.26281 12.4008 8.27214 12.3449 8.35601 12.3075C8.69153 12.1211 9.02703 11.9255 9.35321 11.7298C9.38118 11.7111 9.39981 11.7018 9.44641 11.6831C9.44641 11.9161 9.44641 12.1305 9.44641 12.3449C9.44641 12.7082 9.45574 13.0625 9.44641 13.4259C9.44641 13.631 9.521 13.7708 9.698 13.8733C10.2106 14.1621 10.7233 14.4697 11.2358 14.7586C11.3383 14.8145 11.3663 14.8798 11.3663 14.9916C11.3663 15.383 11.3663 15.7745 11.3663 16.2031ZM10.3225 8.43057C10.1267 8.31874 9.96837 8.31874 9.77262 8.43057C8.69152 9.06431 7.61044 9.68875 6.52004 10.3131C6.47344 10.3411 6.42684 10.3597 6.34296 10.4064C6.37093 9.99625 6.28705 9.60488 6.42684 9.23206C6.5014 9.02703 6.65051 8.86859 6.83691 8.76607C7.74091 8.24417 8.64492 7.72228 9.54887 7.20038C9.87512 7.01398 10.22 7.01398 10.5461 7.20969C11.5712 7.80615 12.6058 8.39329 13.631 8.98975C13.6775 9.01771 13.7335 9.07362 13.7335 9.1109C13.7427 9.53025 13.7335 9.959 13.7335 10.4156C13.3606 10.2013 13.0159 9.99625 12.671 9.8005C11.8881 9.3439 11.1053 8.89655 10.3225 8.43057ZM17.5545 15.0848C17.5265 15.4204 17.3309 15.6533 17.042 15.8211C15.9422 16.4548 14.8331 17.0885 13.7335 17.7316C13.3886 17.9273 13.0438 18.1324 12.699 18.328C12.6524 18.356 12.6151 18.3746 12.5591 18.4026C12.5591 18.3468 12.5499 18.3001 12.5499 18.2629C12.5499 17.8994 12.5499 17.5359 12.5499 17.1631C12.5499 17.0793 12.5685 17.0326 12.643 16.986C14.246 16.0634 15.8584 15.1314 17.4614 14.2088C17.4893 14.1901 17.5079 14.1808 17.5545 14.1621C17.5639 14.4884 17.5825 14.7866 17.5545 15.0848ZM17.5639 12.7921C17.5639 13.1743 17.3588 13.4353 17.0326 13.6216C15.7745 14.3485 14.5162 15.0661 13.2675 15.7931C13.0345 15.9236 12.8107 16.054 12.5591 16.1939C12.5591 16.1286 12.5499 16.0914 12.5499 16.0447C12.5499 15.6812 12.5499 15.3271 12.5499 14.9636C12.5499 14.8611 12.5779 14.8052 12.671 14.7586C13.808 14.1062 14.9544 13.4445 16.0914 12.7921C16.2964 12.6804 16.3802 12.5312 16.3802 12.2982C16.3709 11.0587 16.3802 9.80988 16.3802 8.57036C16.3802 8.51445 16.3802 8.44921 16.3802 8.35601C16.6785 8.53309 16.958 8.6822 17.2098 8.86859C17.4426 9.03635 17.5639 9.28798 17.5639 9.56763C17.5731 10.6394 17.5731 11.7111 17.5639 12.7921Z" fill="black"/>
</svg>

<svg xmlns="http://www.w3.org/2000/svg" width="24" height="24" fill="none" viewBox="0 0 24 24">
    <path fill="#000" d="M12 2C6.473 2 2 6.473 2 12c0 5.526 4.473 10 10 10 5.526 0 10-4.474 10-10 0-5.527-4.474-10-10-10m-.429 4.045c.28-.14.569-.13.84.028.931.53 1.863 1.071 2.795 1.612a.89.89 0 0 1 .447.801c.01 1.212 0 2.414 0 3.626 0 .046-.028.112-.065.13-.354.215-.727.42-1.118.653V8.98c0-.242-.084-.391-.29-.512a580 580 0 0 1-3.242-1.864c-.047-.028-.094-.056-.168-.103.289-.177.531-.326.801-.456m-.205 12.358c-.065-.028-.102-.056-.149-.075-1.426-.82-2.861-1.659-4.296-2.47-.401-.233-.587-.559-.578-1.016q.015-1.468 0-2.935c0-.438.177-.764.568-.979 1.007-.578 2.014-1.155 3.01-1.733.085-.047.15-.056.243 0q.517.307 1.063.615a2 2 0 0 1-.178.102c-1.08.625-2.171 1.258-3.252 1.874-.177.102-.261.233-.261.438.01.773.01 1.537 0 2.311 0 .214.084.345.26.447 1.147.653 2.293 1.324 3.44 1.976.093.056.14.112.14.233-.01.4-.01.792-.01 1.212m0-2.2a4 4 0 0 1-.242-.14c-.913-.521-1.817-1.053-2.73-1.575-.103-.056-.14-.111-.131-.233.01-.587 0-1.183 0-1.77 0-.084.01-.14.093-.178.336-.186.671-.382.997-.577a.4.4 0 0 1 .093-.047v.662c0 .363.01.717 0 1.08 0 .206.075.346.252.448.513.29 1.025.597 1.538.886.102.056.13.12.13.233zm-1.043-7.772a.49.49 0 0 0-.55 0 368 368 0 0 1-3.253 1.882c-.047.028-.093.047-.177.093.028-.41-.056-.801.084-1.174a.88.88 0 0 1 .41-.466L9.549 7.2a.94.94 0 0 1 .997.01c1.025.596 2.06 1.183 3.085 1.78.046.028.102.084.102.12.01.42 0 .849 0 1.306-.372-.215-.717-.42-1.062-.616-.783-.456-1.566-.903-2.348-1.37m7.232 6.654c-.029.335-.224.568-.513.736-1.1.634-2.209 1.268-3.309 1.91-.344.196-.69.401-1.034.597a2 2 0 0 1-.14.075c0-.056-.01-.103-.01-.14v-1.1c0-.084.02-.13.094-.177 1.603-.923 3.215-1.855 4.818-2.777a.4.4 0 0 1 .094-.047c.009.326.027.625 0 .923m.009-2.293c0 .382-.205.643-.531.83-1.259.726-2.517 1.444-3.766 2.171-.232.13-.456.261-.708.4 0-.064-.01-.102-.01-.148v-1.081c0-.103.029-.159.122-.205 1.137-.653 2.283-1.315 3.42-1.967.205-.112.29-.26.29-.494-.01-1.24 0-2.488 0-3.728v-.214c.297.177.577.326.829.513a.84.84 0 0 1 .354.699q.015 1.604 0 3.224"/>
</svg>
